X:2
T:Reel
T:from James E Frill's Musick Book  p. 2 Top
Z:Sarah Gowan
R:Reel
M:2/4
L:1/16
K:G
D2| GBdg gdBd | dcBA cBAG | GeFd EcDB| cBAG FAD2|
B2B2c2c2 | defd g2fe | edcB dcBA | G2G2 G2:|
|:FG| A2AB AGFA | d2de dcBd | g2gb agfe| ed^ce d2d2 | 
e2dB e2dB | edeg d2BG | edcB dcBA | G2G2 G2:|
